dist/assets/uwm-icons/icon_email.svg

<?xml version="1.0" encoding="UTF-8"?>
<svg width="24px" height="24px" viewBox="0 0 24 24" version="1.1" xmlns="http://www.w3.org/2000/svg" xmlns:xlink="http://www.w3.org/1999/xlink">
    <!-- Generator: Sketch 48.2 (47327) - http://www.bohemiancoding.com/sketch -->
    <title>icon_email</title>
    <desc>Created with Sketch.</desc>
    <defs></defs>
    <g id="Icons" stroke="none" stroke-width="1" fill="none" fill-rule="evenodd">
        <g id="icon_email">
            <rect id="Rectangle" fill="#FFFFFF" x="0" y="0" width="24" height="24"></rect>
            <path d="M5.21611864,18.1127989 C5.08491191,18.1127989 4.96069739,18.0879652 4.84141855,18.0531181 L9.8346777,13.1785186 L10.7687544,14.0765344 C11.1080822,14.4073823 11.5539383,14.5724057 12.0002057,14.5724057 C12.4456504,14.5724057 12.8915065,14.4073823 13.2308343,14.0773355 L14.159564,13.1753143 L19.1133378,18.0667365 C19.0072207,18.0939734 18.8986358,18.1127989 18.7834701,18.1127989 L5.21611864,18.1127989 Z M4.11052716,17.5103833 C3.98590133,17.3157197 3.91063227,17.0874106 3.91063227,16.8414777 L3.91063227,8.15812176 C3.91063227,7.96065442 3.96163426,7.77520335 4.04471814,7.60817722 L9.18687019,12.5548743 L4.11052716,17.5103833 Z M18.7834701,6.88720113 C18.9504604,6.88720113 19.1079908,6.92084668 19.2544158,6.97612152 L12.5871398,13.4492852 C12.2634417,13.7649125 11.7365583,13.7649125 11.4108036,13.4480836 L4.69992916,6.99174267 C4.85828211,6.92485211 5.032676,6.88720113 5.21611864,6.88720113 L18.7834701,6.88720113 Z M14.8044924,12.5488662 L19.9334826,7.56932462 C20.0297283,7.74636431 20.0889564,7.94463273 20.0889564,8.15812176 L20.0889564,16.8414777 C20.0889564,17.1030318 20.0075178,17.346161 19.8676736,17.5484348 L14.8044924,12.5488662 Z M18.7834701,6 L5.21611864,6 C3.99371615,6 3,6.96811067 3,8.15812176 L3,16.8414777 C3,18.0318893 3.99371615,19 5.21611864,19 L18.7834701,19 C20.0058725,19 21,18.0318893 21,16.8414777 L21,8.15812176 C21,6.96811067 20.0058725,6 18.7834701,6 Z" id="Fill-87" fill="#000000"></path>
        </g>
    </g>
</svg>

<svg width="24" height="24" xmlns="http://www.w3.org/2000/svg"><g fill="none" fill-rule="evenodd"><path fill="#FFF" d="M0 0h24v24H0z"/><path d="M5.216 18.113c-.131 0-.255-.025-.375-.06l4.994-4.874.934.898c.34.33.785.495 1.231.495a1.76 1.76 0 0 0 1.23-.495l.93-.902 4.953 4.892a1.315 1.315 0 0 1-.33.046H5.216zm-1.105-.603a1.237 1.237 0 0 1-.2-.669V8.158c0-.197.05-.383.134-.55l5.142 4.947L4.11 17.51zM18.783 6.887c.167 0 .325.034.471.09l-6.667 6.472a.848.848 0 0 1-1.176 0L4.7 6.991c.158-.067.333-.105.516-.105h13.567zm-3.979 5.662l5.13-4.98c.096.177.155.376.155.59v8.682c0 .262-.081.505-.221.707l-5.064-5zM18.784 6H5.215C3.994 6 3 6.968 3 8.158v8.683C3 18.031 3.994 19 5.216 19h13.567C20.006 19 21 18.032 21 16.841V8.158C21 6.968 20.006 6 18.783 6z" fill="#000"/></g></svg>
